icons/Star.svg

<svg width="24" height="24" viewBox="0 0 24 24" fill="none" xmlns="http://www.w3.org/2000/svg">
<g id="Star">
<path id="Vector" d="M13.35 5.25999L14.62 7.84999C14.7278 8.06805 14.8869 8.25663 15.0838 8.39948C15.2806 8.54233 15.5093 8.63517 15.75 8.66999L18.6 9.07999C18.8772 9.12024 19.1375 9.23728 19.3516 9.41787C19.5657 9.59846 19.725 9.83538 19.8113 10.1018C19.8977 10.3682 19.9078 10.6535 19.8404 10.9254C19.773 11.1972 19.6308 11.4448 19.43 11.64L17.37 13.64C17.1903 13.8126 17.0568 14.0276 16.9817 14.2652C16.9066 14.5028 16.8922 14.7554 16.94 15L17.42 17.84C17.4662 18.1149 17.4348 18.3972 17.3295 18.6553C17.2242 18.9134 17.049 19.137 16.8237 19.3011C16.5983 19.4652 16.3317 19.5632 16.0537 19.5842C15.7758 19.6052 15.4974 19.5484 15.25 19.42L12.7 18.06C12.484 17.947 12.2438 17.8879 12 17.8879C11.7562 17.8879 11.516 17.947 11.3 18.06L8.75 19.4C8.50256 19.5284 8.22424 19.5852 7.94628 19.5642C7.66832 19.5432 7.4017 19.4452 7.17635 19.2811C6.951 19.117 6.77583 18.8934 6.6705 18.6353C6.56516 18.3772 6.53382 18.0949 6.58 17.82L7.06 15C7.10256 14.76 7.08561 14.5133 7.01064 14.2814C6.93567 14.0496 6.80498 13.8396 6.63 13.67L4.57 11.67C4.36015 11.4761 4.21002 11.2264 4.13728 10.9501C4.06454 10.6738 4.07222 10.3825 4.15941 10.1104C4.2466 9.83835 4.40967 9.59684 4.62944 9.4143C4.84922 9.23175 5.11656 9.11577 5.4 9.07999L8.25 8.66999C8.49072 8.63517 8.71937 8.54233 8.91622 8.39948C9.11308 8.25663 9.27225 8.06805 9.38 7.84999L10.65 5.25999C10.7755 5.00948 10.9683 4.79883 11.2067 4.65163C11.4451 4.50442 11.7198 4.42645 12 4.42645C12.2802 4.42645 12.5549 4.50442 12.7933 4.65163C13.0317 4.79883 13.2245 5.00948 13.35 5.25999Z" stroke="#00153F" stroke-width="1.5" stroke-miterlimit="10"/>
</g>
</svg>

<svg xmlns="http://www.w3.org/2000/svg" fill="none" viewBox="0 0 24 24"><path stroke="currentColor" stroke-miterlimit="10" stroke-width="1.5" d="m13.35 5.26 1.27 2.59a1.5 1.5 0 0 0 1.13.82l2.85.41a1.5 1.5 0 0 1 .83 2.56l-2.06 2a1.49 1.49 0 0 0-.43 1.36l.48 2.84a1.5 1.5 0 0 1-2.17 1.58l-2.55-1.36a1.51 1.51 0 0 0-1.4 0L8.75 19.4a1.5 1.5 0 0 1-2.17-1.58L7.06 15a1.49 1.49 0 0 0-.43-1.33l-2.06-2a1.5 1.5 0 0 1 .83-2.59l2.85-.41a1.5 1.5 0 0 0 1.13-.82l1.27-2.59a1.51 1.51 0 0 1 2.7 0Z"/></svg>
